app/images/logos/marketing-land-logo.svg

<svg xmlns="http://www.w3.org/2000/svg" width="666.621" height="114.002"><g fill="#80C100"><path d="M328.568 8.336c-3.679 0-6.961 1.713-9.104 4.379l2.982 2.983c1.359-1.921 3.593-3.181 6.121-3.181 2.701 0 5.065 1.441 6.385 3.592l3.011-3.01c-2.129-2.881-5.543-4.763-9.395-4.763zM316.649 9.901c2.873-3.38 7.146-5.531 11.919-5.531 4.945 0 9.352 2.312 12.222 5.906l3.109-3.11c-3.677-4.376-9.183-7.166-15.333-7.166-5.978 0-11.335 2.646-15.006 6.812l3.089 3.089z"/></g><path fill="#1B1464" d="M74.382 96.346h-19.151v-54.533l-11.056 54.533h-14.66l-12.724-54.533v54.532h-16.791v-97.138h27.617l9.646 50.373 8.67-50.373h28.45v97.139z"/><path fill="#1B1464" d="M124.477 96.346h-17.068v-3.053c-.925 1.763-2.336 2.897-4.231 3.403-1.898.507-4.604.76-8.118.76-5.738 0-9.809-1.019-12.214-3.052-2.406-2.034-3.607-5.135-3.607-9.294v-15.82c0-6.292 4.321-11.518 12.975-15.683 8.648-4.165 12.974-7.081 12.974-8.746v-11.656c0-1.293-.271-2.264-.815-2.912s-1.357-.971-2.445-.971c-.905 0-1.677.322-2.31.971-.634.648-.951 1.619-.951 2.912v15.545h-18.737v-15.684c0-5.828 2.362-10.083 7.081-12.767 3.791-2.126 9.109-3.192 15.959-3.192 6.844 0 11.978 1.158 15.4 3.472 4.073 2.682 6.106 7.078 6.106 13.185v62.582zm-19.289-14.709v-20.257c-2.593.646-4.349 1.434-5.271 2.355-.928.928-1.389 2.132-1.389 3.606v14.295c0 1.205.299 2.109.902 2.708.602.604 1.458.903 2.567.903.925 0 1.688-.299 2.29-.903.601-.598.901-1.502.901-2.707z"/><path fill="#1B1464" d="M174.573 50.277h-19.29v-17.188c0-2.42-1.109-3.63-3.33-3.63-1.112 0-1.942.279-2.498.836-.555.556-.833 1.435-.833 2.639v63.412h-19.289v-78.682h19.289v2.601c1.112-.913 2.708-1.668 4.788-2.265 2.08-.593 4.462-.893 7.147-.893 4.07 0 7.423 1.089 10.062 3.261 2.633 2.178 3.953 4.837 3.953 7.979v21.93z"/><path fill="#1B1464" d="M232.301 96.346h-22.619l-11.935-28.444v28.444h-19.289v-97.139h19.289v43.713l9.994-25.256h19.842l-13.876 34.503 18.594 44.179z"/><path fill="#1B1464" d="M275.042 81.497c0 5.831-2.313 10.09-6.939 12.769-3.699 2.126-8.973 3.19-15.821 3.19-6.844 0-12.119-1.156-15.818-3.466-4.441-2.776-6.663-7.168-6.663-13.184v-47.042c0-5.923 2.172-10.272 6.522-13.047 3.793-2.406 9.115-3.61 15.959-3.61 6.752 0 12.027 1.066 15.821 3.192 4.626 2.592 6.939 6.85 6.939 12.767v29.978h-25.952v18.206c0 1.285.279 2.271.835 2.962.553.691 1.389 1.036 2.495 1.036 1.112 0 1.944-.345 2.501-1.03.553-.691.832-1.677.832-2.968v-15.711h19.289v15.958zm-19.289-30.391v-17.924c0-1.288-.279-2.252-.832-2.898-.557-.64-1.389-.962-2.501-.962-.922 0-1.711.322-2.356.962-.651.646-.973 1.61-.973 2.898v17.925h6.662z"/><path fill="#1B1464" d="M314.591 96.346h-12.214c-8.325 0-13.436-1.129-15.331-3.395-1.898-2.258-2.846-7.45-2.846-15.572v-47.92h-8.604v-11.795h8.604v-15.818h19.29v15.818h10.408v11.796h-10.408v47.879c0 2.309.783 3.928 2.359 4.856 1.109.646 2.82.967 5.137.967h3.606v13.184z"/><path fill="#1B1464" d="M337.901 96.346h-19.289v-78.682h19.289v78.682z"/><path fill="#1B1464" d="M386.887 96.346h-19.289v-63.274c0-2.409-1.109-3.613-3.33-3.613-1.109 0-1.944.291-2.498.867-.556.576-.835 1.492-.835 2.74v63.279h-19.289v-78.681h19.289v2.636c1.112-.922 2.707-1.685 4.788-2.288 2.085-.602 4.464-.905 7.149-.905 4.066 0 7.424 1.089 10.06 3.261 2.638 2.178 3.955 4.837 3.955 7.979v67.999z"/><path fill="#1B1464" d="M436.15 95.24c0 5.455-.58 9.154-1.735 11.102-1.156 1.941-3.076 3.561-5.761 4.856-1.572.738-3.584 1.221-6.035 1.459-2.451.225-5.436.345-8.949.345h-19.29v-11.517h15.683c3.234 0 5.318-.915 6.243-2.736.368-.732.556-2.146.556-4.242-1.204.939-2.801 1.666-4.788 2.178-1.99.513-4.372.771-7.146.771-4.07 0-7.424-1.064-10.062-3.19-2.636-2.125-3.952-4.718-3.952-7.774v-56.479c0-3.515 1.014-6.384 3.054-8.602 2.679-2.869 6.798-4.304 12.347-4.304 3.053 0 5.505.467 7.357 1.389 1.571 1.112 2.681 1.804 3.329 2.083l2.498-2.915h16.653v77.576zm-19.289-13.039v-49.282c0-1.198-.277-2.1-.832-2.699-.557-.599-1.389-.898-2.498-.898-2.221 0-3.33 1.198-3.33 3.598v49.143c0 2.401 1.109 3.603 3.33 3.603 1.109 0 1.941-.302 2.498-.899.555-.601.832-1.455.832-2.566z"/><path fill="#80C100" d="M505.395 96.346h-40.243v-97.139h21.37v84.792h18.873v12.347z"/><path fill="#80C100" d="M554.103 96.346h-17.068v-3.053c-.925 1.763-2.337 2.897-4.232 3.403-1.898.507-4.604.76-8.117.76-5.739 0-9.809-1.019-12.215-3.052-2.406-2.034-3.605-5.135-3.605-9.294v-15.82c0-6.292 4.32-11.518 12.973-15.683 8.648-4.165 12.976-7.081 12.976-8.746v-11.656c0-1.293-.27-2.264-.814-2.912s-1.356-.971-2.446-.971c-.905 0-1.676.322-2.312.971-.633.648-.95 1.619-.95 2.912v15.545h-18.735v-15.684c0-5.828 2.361-10.083 7.081-12.767 3.79-2.126 9.109-3.192 15.958-3.192 6.846 0 11.979 1.158 15.4 3.472 4.073 2.682 6.108 7.078 6.108 13.185v62.582zm-19.29-14.709v-20.257c-2.592.646-4.35 1.434-5.271 2.355-.928.928-1.389 2.132-1.389 3.606v14.295c0 1.205.3 2.109.902 2.708.602.604 1.457.903 2.566.903.924 0 1.688-.299 2.29-.903.604-.598.902-1.502.902-2.707z"/><path fill="#80C100" d="M604.06 96.346h-19.291v-63.274c0-2.409-1.107-3.613-3.329-3.613-1.108 0-1.941.291-2.494.867-.559.576-.836 1.492-.836 2.74v63.279h-19.288v-78.681h19.288v2.636c1.111-.922 2.708-1.685 4.787-2.288 2.084-.602 4.466-.905 7.148-.905 4.069 0 7.423 1.089 10.062 3.261 2.637 2.178 3.953 4.837 3.953 7.979v67.999z"/><path fill="#80C100" d="M653.325 96.346h-14.57l-1.669-2.635c-1.853 1.392-2.961 2.175-3.329 2.358-1.944.928-4.578 1.387-7.91 1.387-5.644 0-10.016-1.295-13.113-3.883-3.104-2.593-4.65-5.599-4.65-9.023v-56.479c0-3.054 1.294-5.641 3.886-7.772 2.588-2.126 5.969-3.192 10.13-3.192 2.59 0 4.949.28 7.08.836 2.127.553 3.745 1.247 4.857 2.08v-20.816h19.289v97.139zm-19.289-14.709v-48.848c0-1.111-.303-1.964-.904-2.566-.603-.602-1.411-.901-2.429-.901-2.221 0-3.331 1.204-3.331 3.606v48.708c0 1.205.28 2.109.833 2.708.556.604 1.389.903 2.498.903s1.944-.299 2.498-.903c.556-.598.835-1.502.835-2.707z"/></svg>

<?xml version="1.0" encoding="utf-8"?>
<!-- Generator: Adobe Illustrator 15.0.2, SVG Export Plug-In . SVG Version: 6.00 Build 0)  -->
<!DOCTYPE svg PUBLIC "-//W3C//DTD SVG 1.1//EN" "http://www.w3.org/Graphics/SVG/1.1/DTD/svg11.dtd">
<svg version="1.1" id="Layer_1" xmlns="http://www.w3.org/2000/svg" xmlns:xlink="http://www.w3.org/1999/xlink" x="0px" y="0px"
	 width="666.621px" height="114.002px" viewBox="0 0 666.621 114.002" enable-background="new 0 0 666.621 114.002"
	 xml:space="preserve">
<g>
	<path fill="#80C100" d="M328.568,8.336c-3.679,0-6.961,1.713-9.104,4.379l2.982,2.983c1.359-1.921,3.593-3.181,6.121-3.181
		c2.701,0,5.065,1.441,6.385,3.592l3.011-3.01C335.834,10.218,332.42,8.336,328.568,8.336z"/>
	<path fill="#80C100" d="M316.649,9.901c2.873-3.38,7.146-5.531,11.919-5.531c4.945,0,9.352,2.312,12.222,5.906l3.109-3.11
		C340.222,2.79,334.716,0,328.566,0c-5.978,0-11.335,2.646-15.006,6.812L316.649,9.901z"/>
</g>
<path fill="#1B1464" d="M74.382,96.346H55.231V41.813L44.175,96.346h-14.66L16.791,41.813v54.532H0V-0.793h27.617l9.646,50.373
	l8.67-50.373h28.45V96.346z"/>
<path fill="#1B1464" d="M124.477,96.346h-17.068v-3.053c-0.925,1.763-2.336,2.897-4.231,3.403c-1.898,0.507-4.604,0.76-8.118,0.76
	c-5.738,0-9.809-1.019-12.214-3.052c-2.406-2.034-3.607-5.135-3.607-9.294V69.29c0-6.292,4.321-11.518,12.975-15.683
	c8.648-4.165,12.974-7.081,12.974-8.746V33.205c0-1.293-0.271-2.264-0.815-2.912s-1.357-0.971-2.445-0.971
	c-0.905,0-1.677,0.322-2.31,0.971c-0.634,0.648-0.951,1.619-0.951,2.912V48.75H79.93V33.066c0-5.828,2.362-10.083,7.081-12.767
	c3.791-2.126,9.109-3.192,15.959-3.192c6.844,0,11.978,1.158,15.4,3.472c4.073,2.682,6.106,7.078,6.106,13.185V96.346z
	 M105.188,81.637V61.38c-2.593,0.646-4.349,1.434-5.271,2.355c-0.928,0.928-1.389,2.132-1.389,3.606v14.295
	c0,1.205,0.299,2.109,0.902,2.708c0.602,0.604,1.458,0.903,2.567,0.903c0.925,0,1.688-0.299,2.29-0.903
	C104.888,83.746,105.188,82.842,105.188,81.637z"/>
<path fill="#1B1464" d="M174.573,50.277h-19.29V33.089c0-2.42-1.109-3.63-3.33-3.63c-1.112,0-1.942,0.279-2.498,0.836
	c-0.555,0.556-0.833,1.435-0.833,2.639v63.412h-19.289V17.664h19.289v2.601c1.112-0.913,2.708-1.668,4.788-2.265
	c2.08-0.593,4.462-0.893,7.147-0.893c4.07,0,7.423,1.089,10.062,3.261c2.633,2.178,3.953,4.837,3.953,7.979V50.277z"/>
<path fill="#1B1464" d="M232.301,96.346h-22.619l-11.935-28.444v28.444h-19.289V-0.793h19.289V42.92l9.994-25.256h19.842
	l-13.876,34.503L232.301,96.346z"/>
<path fill="#1B1464" d="M275.042,81.497c0,5.831-2.313,10.09-6.939,12.769c-3.699,2.126-8.973,3.19-15.821,3.19
	c-6.844,0-12.119-1.156-15.818-3.466c-4.441-2.776-6.663-7.168-6.663-13.184V33.764c0-5.923,2.172-10.272,6.522-13.047
	c3.793-2.406,9.115-3.61,15.959-3.61c6.752,0,12.027,1.066,15.821,3.192c4.626,2.592,6.939,6.85,6.939,12.767v29.978H249.09V81.25
	c0,1.285,0.279,2.271,0.835,2.962c0.553,0.691,1.389,1.036,2.495,1.036c1.112,0,1.944-0.345,2.501-1.03
	c0.553-0.691,0.832-1.677,0.832-2.968V65.539h19.289V81.497z M255.753,51.106V33.182c0-1.288-0.279-2.252-0.832-2.898
	c-0.557-0.64-1.389-0.962-2.501-0.962c-0.922,0-1.711,0.322-2.356,0.962c-0.651,0.646-0.973,1.61-0.973,2.898v17.925H255.753z"/>
<path fill="#1B1464" d="M314.591,96.346h-12.214c-8.325,0-13.436-1.129-15.331-3.395c-1.898-2.258-2.846-7.45-2.846-15.572V29.459
	h-8.604V17.664h8.604V1.846h19.29v15.818h10.408v11.796h-10.408v47.879c0,2.309,0.783,3.928,2.359,4.856
	c1.109,0.646,2.82,0.967,5.137,0.967h3.606V96.346z"/>
<path fill="#1B1464" d="M337.901,96.346h-19.289V17.664h19.289V96.346z"/>
<path fill="#1B1464" d="M386.887,96.346h-19.289V33.072c0-2.409-1.109-3.613-3.33-3.613c-1.109,0-1.944,0.291-2.498,0.867
	c-0.556,0.576-0.835,1.492-0.835,2.74v63.279h-19.289V17.664h19.289v2.636c1.112-0.922,2.707-1.685,4.788-2.288
	c2.085-0.602,4.464-0.905,7.149-0.905c4.066,0,7.424,1.089,10.06,3.261c2.638,2.178,3.955,4.837,3.955,7.979V96.346z"/>
<path fill="#1B1464" d="M436.15,95.24c0,5.455-0.58,9.154-1.735,11.102c-1.156,1.941-3.076,3.561-5.761,4.856
	c-1.572,0.738-3.584,1.221-6.035,1.459c-2.451,0.225-5.436,0.345-8.949,0.345h-19.29v-11.517h15.683
	c3.234,0,5.318-0.915,6.243-2.736c0.368-0.732,0.556-2.146,0.556-4.242c-1.204,0.939-2.801,1.666-4.788,2.178
	c-1.99,0.513-4.372,0.771-7.146,0.771c-4.07,0-7.424-1.064-10.062-3.19c-2.636-2.125-3.952-4.718-3.952-7.774V30.013
	c0-3.515,1.014-6.384,3.054-8.602c2.679-2.869,6.798-4.304,12.347-4.304c3.053,0,5.505,0.467,7.357,1.389
	c1.571,1.112,2.681,1.804,3.329,2.083l2.498-2.915h16.653V95.24z M416.861,82.201V32.919c0-1.198-0.277-2.1-0.832-2.699
	c-0.557-0.599-1.389-0.898-2.498-0.898c-2.221,0-3.33,1.198-3.33,3.598v49.143c0,2.401,1.109,3.603,3.33,3.603
	c1.109,0,1.941-0.302,2.498-0.899C416.584,84.166,416.861,83.312,416.861,82.201z"/>
<path fill="#80C100" d="M505.395,96.346h-40.243V-0.793h21.37v84.792h18.873V96.346z"/>
<path fill="#80C100" d="M554.103,96.346h-17.068v-3.053c-0.925,1.763-2.337,2.897-4.232,3.403c-1.898,0.507-4.604,0.76-8.117,0.76
	c-5.739,0-9.809-1.019-12.215-3.052c-2.406-2.034-3.605-5.135-3.605-9.294V69.29c0-6.292,4.32-11.518,12.973-15.683
	c8.648-4.165,12.976-7.081,12.976-8.746V33.205c0-1.293-0.27-2.264-0.814-2.912s-1.356-0.971-2.446-0.971
	c-0.905,0-1.676,0.322-2.312,0.971c-0.633,0.648-0.95,1.619-0.95,2.912V48.75h-18.735V33.066c0-5.828,2.361-10.083,7.081-12.767
	c3.79-2.126,9.109-3.192,15.958-3.192c6.846,0,11.979,1.158,15.4,3.472c4.073,2.682,6.108,7.078,6.108,13.185V96.346z
	 M534.813,81.637V61.38c-2.592,0.646-4.35,1.434-5.271,2.355c-0.928,0.928-1.389,2.132-1.389,3.606v14.295
	c0,1.205,0.3,2.109,0.902,2.708c0.602,0.604,1.457,0.903,2.566,0.903c0.924,0,1.688-0.299,2.29-0.903
	C534.515,83.746,534.813,82.842,534.813,81.637z"/>
<path fill="#80C100" d="M604.06,96.346h-19.291V33.072c0-2.409-1.107-3.613-3.329-3.613c-1.108,0-1.941,0.291-2.494,0.867
	c-0.559,0.576-0.836,1.492-0.836,2.74v63.279h-19.288V17.664h19.288v2.636c1.111-0.922,2.708-1.685,4.787-2.288
	c2.084-0.602,4.466-0.905,7.148-0.905c4.069,0,7.423,1.089,10.062,3.261c2.637,2.178,3.953,4.837,3.953,7.979V96.346z"/>
<path fill="#80C100" d="M653.325,96.346h-14.57l-1.669-2.635c-1.853,1.392-2.961,2.175-3.329,2.358
	c-1.944,0.928-4.578,1.387-7.91,1.387c-5.644,0-10.016-1.295-13.113-3.883c-3.104-2.593-4.65-5.599-4.65-9.023V28.071
	c0-3.054,1.294-5.641,3.886-7.772c2.588-2.126,5.969-3.192,10.13-3.192c2.59,0,4.949,0.28,7.08,0.836
	c2.127,0.553,3.745,1.247,4.857,2.08V-0.793h19.289V96.346z M634.036,81.637V32.789c0-1.111-0.303-1.964-0.904-2.566
	c-0.603-0.602-1.411-0.901-2.429-0.901c-2.221,0-3.331,1.204-3.331,3.606v48.708c0,1.205,0.28,2.109,0.833,2.708
	c0.556,0.604,1.389,0.903,2.498,0.903s1.944-0.299,2.498-0.903C633.757,83.746,634.036,82.842,634.036,81.637z"/>
</svg>
